**kern	**silbe	**harmony	**phrase	**leadinstrument	**rhyme	**timestamp	**harte
*ICvox	*	*M4/4	*	*	*	*	*M4/4
*VRlead	*	*	*	*	*	*	*
*Hstimme	*	*	*	*	*	*	*
*D-:	*	*D-:	*	*	*	*	*D-:
*M4/4	*	*	*	*	*	*	*
*clefF4	*	*	*	*	*	*	*
r;	.	1r;	.	r	.	0	N.C.
=1	=1	=1	=1	=1	=1	=1	=1
*>Letter>A	*>Letter>A	*>Letter>A	*>Letter>A	*>Letter>A	*>Letter>A	*>Letter>A	*>Letter>A
*>Label>Intro	*>Label>Intro	*>Label>Intro	*>Label>Intro	*>Label>Intro	*>Label>Intro	*>Label>Intro	*>Label>Intro
1r	.	1D-M	newline	r	.	0.372	D-:maj
=2	=2	=2	=2	=2	=2	=2	=2
1r	.	1D-M	.	r	.	1.457	D-:maj
=3	=3	=3	=3	=3	=3	=3	=3
1r	.	1D-M	.	r	.	2.543	D-:maj
=4	=4	=4	=4	=4	=4	=4	=4
1r	.	2D-d	.	r	.	3.628	D-:dim
.	.	2A-Mm	.	r	.	4.171	A-:7/4
=5	=5	=5	=5	=5	=5	=5	=5
1r	.	2.D-M	newline	r	.	4.714	D-:maj
.	.	4A-Mm	.	r	.	5.515	A-:7
=6	=6	=6	=6	=6	=6	=6	=6
4r	.	1A-Mm	.	r	.	5.782	A-:7
8c-	Well,	.	.	.	.	.	.
8c-	I	.	.	.	.	.	.
8c-	quit	.	.	.	.	.	.
4c-	my	.	.	.	.	.	.
[8c-	job	.	.	.	.	.	.
=7	=7	=7	=7	=7	=7	=7	=7
*>Letter>B	*>Letter>B	*>Letter>B	*>Letter>B	*>Letter>B	*>Letter>B	*>Letter>B	*>Letter>B
*>Label>Verse	*>Label>Verse	*>Label>Verse	*>Label>Verse	*>Label>Verse	*>Label>Verse	*>Label>Verse	*>Label>Verse
8c-]	_	1D-Mm	newline	voice	.	6.85	D-:7
4.~A-	down	.	.	.	.	.	.
4~G	at	.	.	.	.	.	.
8G-	the	.	.	.	.	.	.
[8A-	car	.	.	.	.	.	.
=8	=8	=8	=8	=8	=8	=8	=8
8A-]	_	1D-Mm	.	voice	.	7.906	D-:7
4D-	wash,	.	.	.	.	.	.
8~D-	I	.	.	.	.	.	.
4~F	left	.	.	.	.	.	.
4~G-	my	.	.	.	.	.	.
=9	=9	=9	=9	=9	=9	=9	=9
8~A-	ma-	1D-Mm	.	voice	.	8.962	D-:7
8~A-	-ma	.	.	.	.	.	.
4G	a	.	.	.	.	.	.
8G-	good-	.	.	.	.	.	.
4F	-bye	.	.	.	.	.	.
[8~A-	note	.	.	.	A	.	.
=10	=10	=10	=10	=10	=10	=10	=10
4~A-]	_	1D-Mm	.	voice	.	10.018	D-:7
4r	.	.	.	.	.	.	.
8r	.	.	.	.	.	.	.
4.B-	By	.	.	.	.	.	.
=11	=11	=11	=11	=11	=11	=11	=11
8c-	sun-	1D-Mm	newline	voice	.	11.074	D-:7
4c-	-down	.	.	.	.	.	.
8c-	I'd	.	.	.	.	.	.
8c-	l-	.	.	.	.	.	.
4.c-	-left	.	.	.	.	.	.
=12	=12	=12	=12	=12	=12	=12	=12
4~d-	King-	1D-Mm	.	voice	.	12.121	D-:7
8D-	-ston,	.	.	.	.	.	.
8D-	a'-	.	.	.	.	.	.
8F	-with	.	.	.	.	.	.
4.G-	my	.	.	.	.	.	.
=13	=13	=13	=13	=13	=13	=13	=13
8~G	gui-	1D-Mm	.	voice	.	13.169	D-:7
4.~G	-tar	.	.	.	.	.	.
8G-	un-	.	.	.	.	.	.
8D-	-der	.	.	.	.	.	.
8D-	my	.	.	.	.	.	.
8D-	coat	.	.	.	A	.	.
=14	=14	=14	=14	=14	=14	=14	=14
4r	.	1D-Mm	.	voice	.	14.217	D-:7
8r	.	.	.	.	.	.	.
8D-	I	.	.	.	.	.	.
8B-	hitch-	.	.	.	.	.	.
4B-	-hiked	.	.	.	.	.	.
[8c-	all	.	.	.	.	.	.
=15	=15	=15	=15	=15	=15	=15	=15
8c-]	_	1G-Mm	newline	voice	.	15.264	G-:7
8c-	the	.	.	.	.	.	.
16c-	way	.	.	.	.	.	.
8.A-	_	.	.	.	.	.	.
16A-	down	.	.	.	.	.	.
8.G-	_	.	.	.	.	.	.
8G-	to	.	.	.	.	.	.
[8G-	Mem	.	.	.	.	.	.
=16	=16	=16	=16	=16	=16	=16	=16
8G-]	_	1G-Mm	.	voice	.	16.303	G-:7
8D-	phis,	.	.	.	.	.	.
8F	got	.	.	.	.	.	.
8F	a	.	.	.	.	.	.
8G-	room	.	.	.	.	.	.
4G-	at	.	.	.	.	.	.
8F	the	.	.	.	.	.	.
=17	=17	=17	=17	=17	=17	=17	=17
8~Fq	_	.	.	.	.	.	.
4~G-	Y-	1G-Mm	.	voice	.	17.342	G-:7
8~Fq	_	.	.	.	.	.	.
4~G-	-M-	.	.	.	.	.	.
8~Fq	_	.	.	.	.	.	.
8~G-	-C-	.	.	.	.	.	.
4~A-	-A	.	.	.	B	.	.
8r	.	.	.	.	.	.	.
=18	=18	=18	=18	=18	=18	=18	=18
2r	.	1G-Mm	.	voice	.	18.38	G-:7
8r	.	.	.	.	.	.	.
8~F	a'-	.	.	.	.	.	.
8~B-	-for	.	.	.	.	.	.
8~A-	the	.	.	.	.	.	.
=19	=19	=19	=19	=19	=19	=19	=19
4c-	next	1D-Mm	newline	voice	.	19.419	D-:7
4c-	three	.	.	.	.	.	.
8c-	weeks	.	.	.	.	.	.
8A-	I	.	.	.	.	.	.
8B-	went	.	.	.	.	.	.
8A-	a'-	.	.	.	.	.	.
=20	=20	=20	=20	=20	=20	=20	=20
8c-	-hun-	1D-Mm	.	voice	.	20.453	D-:7
8c-	-tin'	.	.	.	.	.	.
4c-	them	.	.	.	.	.	.
4c-	nights,	.	.	.	.	.	.
8G-	just	.	.	.	.	.	.
8G-	a'-	.	.	.	.	.	.
=21	=21	=21	=21	=21	=21	=21	=21
8G-	-loo-	1D-Mm	.	voice	.	21.487	D-:7
8G-	-kin'	.	.	.	.	.	.
8G-	for	.	.	.	.	.	.
8G-	a	.	.	.	.	.	.
4~A-	place	.	.	.	.	.	.
8D-	to	.	.	.	.	.	.
[8D-	play	.	.	.	B	.	.
=22	=22	=22	=22	=22	=22	=22	=22
4D-]	_	1D-Mm	.	voice	.	22.521	D-:7
4r	.	.	.	.	.	.	.
8r	.	.	.	.	.	.	.
8A-	Well,	.	.	.	.	.	.
4B-	I	.	.	.	.	.	.
=23	=23	=23	=23	=23	=23	=23	=23
4c-	thought	1A-Mm	newline	voice	.	23.555	A-:7
4c-	my	.	.	.	.	.	.
8c-	pic-	.	.	.	.	.	.
8B-	-kin'	.	.	.	.	.	.
4A-	would	.	.	.	.	.	.
=24	=24	=24	=24	=24	=24	=24	=24
12c-	set	1A-Mm	.	voice	.	24.539	A-:7
12c-	'em	.	.	.	.	.	.
[12c-	on	.	.	.	.	.	.
8c-]	_	.	.	.	.	.	.
8B-q	_	.	.	.	.	.	.
[8c-	fire,	.	.	.	C	.	.
4.c-]	_	.	.	.	.	.	.
8A-	but	.	.	.	.	.	.
=25	=25	=25	=25	=25	=25	=25	=25
8d-	no-	1G-Mm	.	voice	.	25.524	G-:7
[8d-	-bo	.	.	.	.	.	.
16d-]	_	.	.	.	.	.	.
8d-	dy	.	.	.	.	.	.
6~B-	wan-	.	.	.	.	.	.
6~A-	-ted	.	.	.	.	.	.
6~G-	to	.	.	.	.	.	.
[16D-	hi-	.	.	.	(C	.	.
=26	=26	=26	=26	=26	=26	=26	=26
4D-]	-re	1G-Mm	.	voice	c)	26.508	G-:7
4D-	a	.	.	.	.	.	.
8F-	gui-	.	.	.	.	.	.
4D-	-tar	.	.	.	.	.	.
[8D-	man	.	.	.	.	.	.
=27	=27	=27	=27	=27	=27	=27	=27
2D-]	_	1D-M	newline	voice	.	27.492	D-:maj
2r	.	.	.	.	.	.	.
=28	=28	=28	=28	=28	=28	=28	=28
1r	.	2D-d	.	voice	.	28.523	D-:dim
.	.	2A-Mm	.	voice	.	29.038	A-:7/4
=29	=29	=29	=29	=29	=29	=29	=29
1r	.	2.D-M	.	voice	.	29.553	D-:maj
.	.	4A-Mm	.	voice	.	30.326	A-:7
=30	=30	=30	=30	=30	=30	=30	=30
4r	.	1A-Mm	.	voice	.	30.584	A-:7
8d-	Well,	.	.	.	.	.	.
8B-	I	.	.	.	.	.	.
8d-	near-	.	.	.	.	.	.
8B-	-ly	.	.	.	.	.	.
4d-	'bout	.	.	.	.	.	.
=31	=31	=31	=31	=31	=31	=31	=31
*>Letter>B	*>Letter>B	*>Letter>B	*>Letter>B	*>Letter>B	*>Letter>B	*>Letter>B	*>Letter>B
*>Label>Verse	*>Label>Verse	*>Label>Verse	*>Label>Verse	*>Label>Verse	*>Label>Verse	*>Label>Verse	*>Label>Verse
4d-	starved	1D-Mm	newline	voice	.	31.614	D-:7
8B-	to	.	.	.	.	.	.
[8d-	death	.	.	.	.	.	.
8d-]	_	.	.	.	.	.	.
4d-	down	.	.	.	.	.	.
8d-	in	.	.	.	.	.	.
=32	=32	=32	=32	=32	=32	=32	=32
8~B-	Mem-	1D-Mm	.	voice	.	32.644	D-:7
8~D-	-phis	.	.	.	.	.	.
4r	.	.	.	.	.	.	.
4r	.	.	.	.	.	.	.
8r	.	.	.	.	.	.	.
8G-	I	.	.	.	.	.	.
=33	=33	=33	=33	=33	=33	=33	=33
8A-	run	1D-Mm	.	voice	.	33.673	D-:7
4A-	out-	.	.	.	.	.	.
8A-	-ta	.	.	.	.	.	.
8~G	mo-	.	.	.	.	.	.
8~G	-ney	.	.	.	.	.	.
8~G-	and	.	.	.	.	.	.
8G-q	_	.	.	.	.	.	.
8A-	luck	.	.	.	D	.	.
=34	=34	=34	=34	=34	=34	=34	=34
2r	.	1D-Mm	.	voice	.	34.703	D-:7
8r	.	.	.	.	.	.	.
8d-	so	.	.	.	.	.	.
8B-	I	.	.	.	.	.	.
[8d-	bought	.	.	.	.	.	.
=35	=35	=35	=35	=35	=35	=35	=35
4d-]	_	1D-Mm	newline	voice	.	35.732	D-:7
8d-	me	.	.	.	.	.	.
8B-	a	.	.	.	.	.	.
4d-	ride	.	.	.	.	.	.
8d-	down	.	.	.	.	.	.
8B-	to	.	.	.	.	.	.
=36	=36	=36	=36	=36	=36	=36	=36
4d-	Ma-	1D-Mm	.	voice	.	36.762	D-:7
8B-	-con,	.	.	.	.	.	.
8d-	Geor	.	.	.	.	.	.
8B-	_	.	.	.	.	.	.
8A-	gia	.	.	.	.	.	.
8~F-	on	.	.	.	.	.	.
8~G-	an	.	.	.	.	.	.
=37	=37	=37	=37	=37	=37	=37	=37
8~G	o-	1D-Mm	.	voice	.	37.791	D-:7
8~G	-ver-	.	.	.	.	.	.
8~G	-loa-	.	.	.	.	.	.
8~G	-ded	.	.	.	.	.	.
4A-	poul-	.	.	.	.	.	.
8D-	-try	.	.	.	.	.	.
8D-	truck	.	.	.	D	.	.
=38	=38	=38	=38	=38	=38	=38	=38
4r	.	1D-Mm	.	voice	.	38.82	D-:7
8r	.	.	.	.	.	.	.
8A-	I	.	.	.	.	.	.
4c-	thumbed	.	.	.	.	.	.
4c-	on	.	.	.	.	.	.
=39	=39	=39	=39	=39	=39	=39	=39
4c-	down	1G-Mm	newline	voice	.	39.849	G-:7
8~A-	to	.	.	.	.	.	.
8~G-	Pa-	.	.	.	.	.	.
8G-	-na-	.	.	.	.	.	.
4.G-	-ma	.	.	.	.	.	.
=40	=40	=40	=40	=40	=40	=40	=40
8A-	Ci-	1G-Mm	.	voice	.	40.932	G-:7
8D-	-ty,	.	.	.	.	.	.
8F	star-	.	.	.	.	.	.
8~F	-ted	.	.	.	.	.	.
8G-	pic-	.	.	.	.	.	.
8~F	-kin'	.	.	.	.	.	.
4G-	out	.	.	.	.	.	.
=41	=41	=41	=41	=41	=41	=41	=41
8G-	some	1G-Mm	.	voice	.	42.014	G-:7
8G-	of	.	.	.	.	.	.
8G-	them	.	.	.	.	.	.
[8G-	all	.	.	.	.	.	.
8G-]	_	.	.	.	.	.	.
4G-	night	.	.	.	.	.	.
[8A-	bars	.	.	.	E	.	.
=42	=42	=42	=42	=42	=42	=42	=42
2A-]	_	1G-Mm	.	voice	.	43.096	G-:7
4r	.	.	.	.	.	.	.
8r	.	.	.	.	.	.	.
8G-	A'-	.	.	.	.	.	.
=43	=43	=43	=43	=43	=43	=43	=43
8c-	-ho-	1D-Mm	newline	voice	.	44.178	D-:7
8~B-	-pin'	.	.	.	.	.	.
8c-	I	.	.	.	.	.	.
8~B-	could	.	.	.	.	.	.
4c-	make	.	.	.	.	.	.
4~A-	my-	.	.	.	.	.	.
=44	=44	=44	=44	=44	=44	=44	=44
4~c-	-self	1D-Mm	.	voice	.	45.197	D-:7
8~B-	a	.	.	.	.	.	.
[8~B-	dol	.	.	.	.	.	.
8~B-]	_	.	.	.	.	.	.
8A-	lar	.	.	.	.	.	.
8G	ma-	.	.	.	.	.	.
8G	-kin'	.	.	.	.	.	.
=45	=45	=45	=45	=45	=45	=45	=45
8~G	mu-	1D-Mm	.	voice	.	46.216	D-:7
8~G	-sic	.	.	.	.	.	.
4~G	on	.	.	.	.	.	.
4~G-	my	.	.	.	.	.	.
8~G-	gui-	.	.	.	.	.	.
8~G	-tar	.	.	.	E	.	.
=46	=46	=46	=46	=46	=46	=46	=46
8D-	_	1D-Mm	.	voice	.	47.235	D-:7
8r	.	.	.	.	.	.	.
4r	.	.	.	.	.	.	.
8r	.	.	.	.	.	.	.
8A-	I	.	.	.	.	.	.
8B-	got	.	.	.	.	.	.
8A-	the	.	.	.	.	.	.
=47	=47	=47	=47	=47	=47	=47	=47
8B-q	_	.	.	.	.	.	.
4c-	same	1A-Mm	newline	voice	.	48.253	A-:7
8B-q	_	.	.	.	.	.	.
4c-	old	.	.	.	.	.	.
12c-	sto-	.	.	.	.	.	.
12c-	-ry	.	.	.	.	.	.
12~B-	at	.	.	.	.	.	.
8~A-	them	.	.	.	.	.	.
8B-q	_	.	.	.	.	.	.
[8c-	all	.	.	.	.	.	.
=48	=48	=48	=48	=48	=48	=48	=48
8c-]	_	1A-Mm	.	voice	.	49.27	A-:7
8B-q	_	.	.	.	.	.	.
4c-	night	.	.	.	.	.	.
8B-q	_	.	.	.	.	.	.
[8c-	piers	.	.	.	F	.	.
4c-]	_	.	.	.	.	.	.
8r	.	.	.	.	.	.	.
8A-	there	.	.	.	.	.	.
=49	=49	=49	=49	=49	=49	=49	=49
4d-	ain't	1G-Mm	.	voice	.	50.288	G-:7
4d-	no	.	.	.	.	.	.
8~B-	room	.	.	.	.	.	.
8~A-	a-	.	.	.	.	.	.
4~G-	-round	.	.	.	.	.	.
=50	=50	=50	=50	=50	=50	=50	=50
4~G	here	1G-Mm	.	voice	F	51.305	G-:7
8D-	for	.	.	.	.	.	.
8D-	a	.	.	.	.	.	.
8F-	gui-	.	.	.	.	.	.
4D-	-tar	.	.	.	.	.	.
[8D-	man	.	.	.	.	.	.
=51	=51	=51	=51	=51	=51	=51	=51
4.D-]	_	1D-M	newline	voice	.	52.322	D-:maj
8G	We	.	.	.	.	.	.
4A-	don't	.	.	.	.	.	.
8A-	need	.	.	.	.	.	.
8G	a	.	.	.	.	.	.
=52	=52	=52	=52	=52	=52	=52	=52
8G	gui-	2D-d	.	voice	.	53.356	D-:dim
4G-	-tar	.	.	.	.	.	.
[8F	man,	.	.	.	.	.	.
4F]	_	2A-Mm	.	voice	.	53.874	A-:7/4
8E-	son!	.	.	.	.	.	.
8F	_	.	.	.	.	.	.
=53	=53	=53	=53	=53	=53	=53	=53
1r	.	1D-Mm	.	voice	.	54.391	D-:7
=54	=54	=54	=54	=54	=54	=54	=54
2r	.	1D-Mm	.	voice	.	55.425	D-:7
8r	.	.	.	.	.	.	.
8A-	So	.	.	.	.	.	.
4c-	I	.	.	.	.	.	.
=55	=55	=55	=55	=55	=55	=55	=55
*>Letter>C	*>Letter>C	*>Letter>C	*>Letter>C	*>Letter>C	*>Letter>C	*>Letter>C	*>Letter>C
*>Label>Bridge	*>Label>Bridge	*>Label>Bridge	*>Label>Bridge	*>Label>Bridge	*>Label>Bridge	*>Label>Bridge	*>Label>Bridge
4c-	slept	1G-Mm	newline	voice	.	56.46	G-:7
8~A-	in	.	.	.	.	.	.
8~G	the	.	.	.	.	.	.
8~G-	ho-	.	.	.	.	.	.
4~G-	-bo	.	.	.	.	.	.
8~G-q	_	.	.	.	.	.	.
[8~A-	jun	.	.	.	.	.	.
=56	=56	=56	=56	=56	=56	=56	=56
8A-]	_	1G-Mm	.	voice	.	57.469	G-:7
8D-	gles	.	.	.	.	.	.
4r	.	.	.	.	.	.	.
8r	.	.	.	.	.	.	.
8A-	I	.	.	.	.	.	.
8c-	roamed	.	.	.	.	.	.
8A-	a	.	.	.	.	.	.
=57	=57	=57	=57	=57	=57	=57	=57
4d-	thou-	1G-Mm	.	voice	.	58.477	G-:7
8d-	-sand	.	.	.	.	.	.
[8d-	miles	.	.	.	.	.	.
8d-]	_	.	.	.	.	.	.
8D-	_	.	.	.	.	.	.
8D-	of	.	.	.	.	.	.
8F-	track	.	.	.	G	.	.
=58	=58	=58	=58	=58	=58	=58	=58
2r	.	1G-Mm	.	voice	.	59.486	G-:7
8r	.	.	.	.	.	.	.
8A-	'Till	.	.	.	.	.	.
4B-	I	.	.	.	.	.	.
=59	=59	=59	=59	=59	=59	=59	=59
4c-	found	1D-Mm	newline	voice	.	60.495	D-:7
4c-	my-	.	.	.	.	.	.
8c-	-self	.	.	.	.	.	.
8A-	in	.	.	.	.	.	.
4B-	Mo-	.	.	.	.	.	.
=60	=60	=60	=60	=60	=60	=60	=60
8c-	-bi-	1D-Mm	.	voice	.	61.522	D-:7
8~c-	-le	.	.	.	.	.	.
8c-	A-	.	.	.	.	.	.
8A-	-la-	.	.	.	.	.	.
8B-	-ba-	.	.	.	.	.	.
8A-	-ma	.	.	.	.	.	.
8~G	at	.	.	.	.	.	.
8~G-	a	.	.	.	.	.	.
=61	=61	=61	=61	=61	=61	=61	=61
4~G-	club	1D-Mm	.	voice	.	62.548	D-:7
4~G-	they	.	.	.	.	.	.
4~G	call	.	.	.	.	.	.
4~G	Big	.	.	.	.	.	.
=62	=62	=62	=62	=62	=62	=62	=62
4D-	Jack's	1D-Mm	.	voice	G	63.575	D-:7
4r	.	.	.	.	.	.	.
8r	.	.	.	.	.	.	.
8~B-	A	.	.	.	.	.	.
4~B-	lil'	.	.	.	.	.	.
=63	=63	=63	=63	=63	=63	=63	=63
4~c-	four-	1G-Mm	newline	voice	.	64.601	G-:7
4~B-	-piece	.	.	.	.	.	.
4~G-	band	.	.	.	.	.	.
8~F	was	.	.	.	.	.	.
8~G-	jam-	.	.	.	.	.	.
=64	=64	=64	=64	=64	=64	=64	=64
4~D-	-ming,	1G-Mm	.	voice	.	65.628	G-:7
8~F	so	.	.	.	.	.	.
8~F	I	.	.	.	.	.	.
8~G-	took	.	.	.	.	.	.
4~G-	my	.	.	.	.	.	.
[8G-	gui	.	.	.	.	.	.
=65	=65	=65	=65	=65	=65	=65	=65
8G-]	_	1G-Mm	.	voice	.	66.655	G-:7
4G-	tar	.	.	.	.	.	.
8G-	and	.	.	.	.	.	.
4G-	I	.	.	.	.	.	.
8G-	sat	.	.	.	.	.	.
[8~A-	in	.	.	.	H	.	.
=66	=66	=66	=66	=66	=66	=66	=66
8A-]	_	1G-Mm	.	voice	.	67.681	G-:7
8D-	_	.	.	.	.	.	.
4r	.	.	.	.	.	.	.
4r	.	.	.	.	.	.	.
8r	.	.	.	.	.	.	.
8A-	I	.	.	.	.	.	.
=67	=67	=67	=67	=67	=67	=67	=67
8B-	showed	1E-Mm	newline	voice	.	68.708	E-:7
8B-	'em	.	.	.	.	.	.
8B-	what	.	.	.	.	.	.
8B-	a	.	.	.	.	.	.
4B-	band	.	.	.	.	.	.
8B-	would	.	.	.	.	.	.
[8B-	sound	.	.	.	.	.	.
=68	=68	=68	=68	=68	=68	=68	=68
8B-]	_	1E-Mm	.	voice	.	69.724	E-:7
8B-	like	.	.	.	.	.	.
4r	.	.	.	.	.	.	.
8r	.	.	.	.	.	.	.
8B-	a'	.	.	.	.	.	.
8B-	with	.	.	.	.	.	.
8B-	a	.	.	.	.	.	.
=69	=69	=69	=69	=69	=69	=69	=69
8d-q	_	.	.	.	.	.	.
8e-	swin-	1A-Mm	.	voice	.	70.74	A-:7
8e-	-gin'	.	.	.	.	.	.
8e-	lit-	.	.	.	.	.	.
8e-	-tle	.	.	.	.	.	.
8c	gui-	.	.	.	.	.	.
4A-	-tar	.	.	.	.	.	.
[8A-	man!	.	.	.	H	.	.
=70	=70	=70	=70	=70	=70	=70	=70
4A-]	_	1A-Mm	.	voice	.	71.756	A-:7
8c-	Show	.	.	.	.	.	.
[8B-	'em,	.	.	.	.	.	.
8B-]	_	.	.	.	.	.	.
4.A-	son!	.	.	.	.	.	.
=71	=71	=71	=71	=71	=71	=71	=71
*>Letter>B2	*>Letter>B2	*>Letter>B2	*>Letter>B2	*>Letter>B2	*>Letter>B2	*>Letter>B2	*>Letter>B2
*>Label>Solo	*>Label>Solo	*>Label>Solo	*>Label>Solo	*>Label>Solo	*>Label>Solo	*>Label>Solo	*>Label>Solo
1r	.	1D-Mm	newline	guitar	.	72.772	D-:7
=72	=72	=72	=72	=72	=72	=72	=72
1r	.	1D-Mm	.	guitar	.	73.8	D-:7
=73	=73	=73	=73	=73	=73	=73	=73
1r	.	1G-Mm	.	guitar	.	74.829	G-:7
=74	=74	=74	=74	=74	=74	=74	=74
1r	.	1G-Mm	.	guitar	.	75.857	G-:7
=75	=75	=75	=75	=75	=75	=75	=75
1r	.	1D-Mm	newline	guitar	.	76.885	D-:7
=76	=76	=76	=76	=76	=76	=76	=76
1r	.	1D-Mm	.	guitar	.	77.923	D-:7
=77	=77	=77	=77	=77	=77	=77	=77
1r	.	1D-Mm	.	guitar	.	78.961	D-:7
=78	=78	=78	=78	=78	=78	=78	=78
1r	.	1D-Mm	.	guitar	.	79.999	D-:7
=79	=79	=79	=79	=79	=79	=79	=79
1r	.	1D-Mm	newline	guitar	.	81.037	D-:7
=80	=80	=80	=80	=80	=80	=80	=80
1r	.	1D-Mm	.	guitar	.	82.068	D-:7
=81	=81	=81	=81	=81	=81	=81	=81
1r	.	1D-Mm	.	guitar	.	83.099	D-:7
=82	=82	=82	=82	=82	=82	=82	=82
1r	.	1D-Mm	.	guitar	.	84.129	D-:7
=83	=83	=83	=83	=83	=83	=83	=83
1r	.	1G-Mm	newline	guitar	.	85.16	G-:7
=84	=84	=84	=84	=84	=84	=84	=84
1r	.	1G-Mm	.	guitar	.	86.166	G-:7
=85	=85	=85	=85	=85	=85	=85	=85
1r	.	1D-Mm	.	guitar	.	87.171	D-:7
=86	=86	=86	=86	=86	=86	=86	=86
1r	.	1D-Mm	.	guitar	.	88.177	D-:7
=87	=87	=87	=87	=87	=87	=87	=87
1r	.	1A-Mm	newline	guitar	.	89.183	A-:7
=88	=88	=88	=88	=88	=88	=88	=88
1r	.	1G-Mm	.	guitar	.	90.216	G-:7
=89	=89	=89	=89	=89	=89	=89	=89
1r	.	1D-Mm	.	guitar	.	91.25	D-:7
=90	=90	=90	=90	=90	=90	=90	=90
1r	.	1D-Mm	.	guitar	.	92.283	D-:7
=91	=91	=91	=91	=91	=91	=91	=91
1r	.	2.D-M	newline	guitar	.	93.316	D-:maj
.	.	4A-Mm	.	guitar	.	94.044	A-:7
=92	=92	=92	=92	=92	=92	=92	=92
8r	.	1A-Mm	.	guitar	.	94.286	A-:7
4c-	If	.	.	.	.	.	.
8A-	you	.	.	.	.	.	.
8c-	e-	.	.	.	.	.	.
8A-	-ver	.	.	.	.	.	.
8c-	take	.	.	.	.	.	.
8A-	a	.	.	.	.	.	.
=93	=93	=93	=93	=93	=93	=93	=93
*>Letter>B	*>Letter>B	*>Letter>B	*>Letter>B	*>Letter>B	*>Letter>B	*>Letter>B	*>Letter>B
*>Label>Verse	*>Label>Verse	*>Label>Verse	*>Label>Verse	*>Label>Verse	*>Label>Verse	*>Label>Verse	*>Label>Verse
4d-	trip	1D-Mm	newline	guitar	.	95.256	D-:7
4d-	down	.	.	.	.	.	.
4d-	to	.	.	.	.	.	.
8d-	the	.	.	.	.	.	.
[8B-	o	.	.	.	.	.	.
=94	=94	=94	=94	=94	=94	=94	=94
8B-]	_	1D-Mm	.	guitar	.	96.307	D-:7
8~D-	cean	.	.	.	.	.	.
8r	.	.	.	.	.	.	.
[8G	find	.	.	.	.	.	.
8G]	_	.	.	.	.	.	.
4G	your-	.	.	.	.	.	.
8A-	-self	.	.	.	.	.	.
=95	=95	=95	=95	=95	=95	=95	=95
8r	.	1D-Mm	.	guitar	.	97.358	D-:7
4G-	down	.	.	.	.	.	.
8F	a-	.	.	.	.	.	.
4G-	-round	.	.	.	.	.	.
4F	Mo-	.	.	.	.	.	.
=96	=96	=96	=96	=96	=96	=96	=96
4A-	-bile	1D-Mm	.	guitar	I	98.409	D-:7
4r	.	.	.	.	.	.	.
2r	.	.	.	.	.	.	.
=97	=97	=97	=97	=97	=97	=97	=97
12d-	make	1D-Mm	newline	guitar	.	99.46	D-:7
12d-	it	.	.	.	.	.	.
12d-	on	.	.	.	.	.	.
[4d-	out	.	.	.	.	.	.
8d-]	_	.	.	.	.	.	.
8B-	to	.	.	.	.	.	.
8A-	a	.	.	.	.	.	.
[8d-	club	.	.	.	.	.	.
=98	=98	=98	=98	=98	=98	=98	=98
8d-]	_	1D-Mm	.	guitar	.	100.461	D-:7
4.d-	called	.	.	.	.	.	.
4B-	Jack's	.	.	.	.	.	.
8r	.	.	.	.	.	.	.
8D-	you	.	.	.	.	.	.
=99	=99	=99	=99	=99	=99	=99	=99
8~G	got-	1D-Mm	.	guitar	.	101.461	D-:7
8~G	-ta	.	.	.	.	.	.
8~G	lit-	.	.	.	.	.	.
8~G	-tle	.	.	.	.	.	.
4~G	time	.	.	.	.	.	.
8~G	to	.	.	.	.	.	.
8A-	kill	.	.	.	I	.	.
=100	=100	=100	=100	=100	=100	=100	=100
4D-	_	1D-Mm	.	guitar	.	102.462	D-:7
4r	.	.	.	.	.	.	.
8r	.	.	.	.	.	.	.
8B-	A'-	.	.	.	.	.	.
4B-	-just	.	.	.	.	.	.
=101	=101	=101	=101	=101	=101	=101	=101
8~c-	fol-	1G-Mm	newline	guitar	.	103.463	G-:7
8~B-	-low	.	.	.	.	.	.
4~A-	that	.	.	.	.	.	.
4~G-	crowd	.	.	.	.	.	.
8~F	of	.	.	.	.	.	.
[8A-	peo	.	.	.	.	.	.
=102	=102	=102	=102	=102	=102	=102	=102
8A-]	_	1G-Mm	.	guitar	.	104.522	G-:7
8D-	ple,	.	.	.	.	.	.
4G-	you'll	.	.	.	.	.	.
4G-	wind	.	.	.	.	.	.
4G-	up	.	.	.	.	.	.
=103	=103	=103	=103	=103	=103	=103	=103
8G-	out	1G-Mm	.	guitar	.	105.581	G-:7
4.G-	on	.	.	.	.	.	.
4G-	his	.	.	.	.	.	.
4G-	dance	.	.	.	.	.	.
=104	=104	=104	=104	=104	=104	=104	=104
4A-	floor	1G-Mm	.	guitar	J	106.64	G-:7
4r	.	.	.	.	.	.	.
4r	.	.	.	.	.	.	.
8r	.	.	.	.	.	.	.
8~G-	a'	.	.	.	.	.	.
=105	=105	=105	=105	=105	=105	=105	=105
8c-	dig-	1D-Mm	newline	guitar	.	107.699	D-:7
8c-	-gin	.	.	.	.	.	.
8c-	the	.	.	.	.	.	.
[8c-	fi	.	.	.	.	.	.
8c-]	_	.	.	.	.	.	.
8A-	nest	.	.	.	.	.	.
8B-	lit-	.	.	.	.	.	.
8A-	-tle	.	.	.	.	.	.
=106	=106	=106	=106	=106	=106	=106	=106
8B-q	_	.	.	.	.	.	.
4c-	five	1D-Mm	.	guitar	.	108.727	D-:7
8B-q	_	.	.	.	.	.	.
4c-	piece	.	.	.	.	.	.
8B-q	_	.	.	.	.	.	.
4c-	group,	.	.	.	.	.	.
8F	up	.	.	.	.	.	.
8F	a	.	.	.	.	.	.
=107	=107	=107	=107	=107	=107	=107	=107
8G-	down	1D-Mm	.	guitar	.	109.755	D-:7
8G-	the	.	.	.	.	.	.
8G-	Gulf	.	.	.	.	.	.
8G-	of	.	.	.	.	.	.
4A-	Me-	.	.	.	.	.	.
8D-	-xi-	.	.	.	.	.	.
[8D-	-co	.	.	.	J	.	.
=108	=108	=108	=108	=108	=108	=108	=108
4.D-]	_	1D-Mm	.	guitar	.	110.783	D-:7
8r	.	.	.	.	.	.	.
4r	.	.	.	.	.	.	.
8r	.	.	.	.	.	.	.
8A-	A'	.	.	.	.	.	.
=109	=109	=109	=109	=109	=109	=109	=109
8B-q	_	.	.	.	.	.	.
4c-	guess	1A-Mm	newline	voice	.	111.811	A-:7
8B-q	_	.	.	.	.	.	.
4c-	who's	.	.	.	.	.	.
8c-	lea-	.	.	.	.	.	.
8B-	-din'	.	.	.	.	.	.
4c-	that	.	.	.	.	.	.
=110	=110	=110	=110	=110	=110	=110	=110
8B-q	_	.	.	.	.	.	.
4c-	five	1A-Mm	.	voice	.	112.833	A-:7
8B-q	_	.	.	.	.	.	.
4c-	piece	.	.	.	.	.	.
8B-q	_	.	.	.	.	.	.
4.c-	band,	.	.	.	H	.	.
8A-	well,	.	.	.	.	.	.
=111	=111	=111	=111	=111	=111	=111	=111
8d-	would-	1G-Mm	.	voice	.	113.854	G-:7
8d-	-n't	.	.	.	.	.	.
8d-	ya	.	.	.	.	.	.
[8d-	know,	.	.	.	.	.	.
8d-]	_	.	.	.	.	.	.
8D-	it's	.	.	.	.	.	.
4~F	that	.	.	.	.	.	.
=112	=112	=112	=112	=112	=112	=112	=112
8G-	swin-	1G-Mm	.	voice	.	114.875	G-:7
8G-	-gin'	.	.	.	.	.	.
8G-	lit-	.	.	.	.	.	.
8A-	-tle	.	.	.	.	.	.
8F	gui-	.	.	.	.	.	.
4.D-	-tar	.	.	.	.	.	.
=113	=113	=113	=113	=113	=113	=113	=113
*>Letter>B2	*>Letter>B2	*>Letter>B2	*>Letter>B2	*>Letter>B2	*>Letter>B2	*>Letter>B2	*>Letter>B2
*>Label>Solo	*>Label>Solo	*>Label>Solo	*>Label>Solo	*>Label>Solo	*>Label>Solo	*>Label>Solo	*>Label>Solo
2D-	man,	1D-Mm	newline	guitar	H	115.897	D-:7
4c-	hey!	.	.	.	.	.	.
4r	.	.	.	.	.	.	.
=114	=114	=114	=114	=114	=114	=114	=114
4r	.	1D-Mm	.	guitar	.	116.928	D-:7
4d-	Hey!	.	.	.	.	.	.
2r	.	.	.	.	.	.	.
=115	=115	=115	=115	=115	=115	=115	=115
1r	.	1G-Mm	.	guitar	.	117.959	G-:7
=116	=116	=116	=116	=116	=116	=116	=116
1r	.	1G-Mm	.	guitar	.	118.99	G-:7
=117	=117	=117	=117	=117	=117	=117	=117
1r	.	1D-Mm	newline	guitar	.	120.021	D-:7
=118	=118	=118	=118	=118	=118	=118	=118
1r	.	1D-Mm	.	guitar	.	121.07	D-:7
=119	=119	=119	=119	=119	=119	=119	=119
1r	.	1D-Mm	.	guitar	.	122.12	D-:7
=120	=120	=120	=120	=120	=120	=120	=120
8r	.	1D-Mm	.	guitar	.	123.169	D-:7
4a-	Uh!	.	.	.	.	.	.
4r	.	.	.	.	.	.	.
4.r	.	.	.	.	.	.	.
=121	=121	=121	=121	=121	=121	=121	=121
1r	.	1D-Mm	newline	guitar	.	124.218	D-:7
=122	=122	=122	=122	=122	=122	=122	=122
1r	.	1D-Mm	.	guitar	.	125.246	D-:7
=123	=123	=123	=123	=123	=123	=123	=123
1r	.	1D-Mm	.	guitar	.	126.273	D-:7
=124	=124	=124	=124	=124	=124	=124	=124
2r	.	1D-Mm	.	guitar	.	127.3	D-:7
8r	.	.	.	.	.	.	.
4d-	Mm-	.	.	.	.	.	.
[8d-	-hm	.	.	.	.	.	.
=125	=125	=125	=125	=125	=125	=125	=125
4d-]	_	1G-Mm	newline	guitar	.	128.328	G-:7
4r	.	.	.	.	.	.	.
2r	.	.	.	.	.	.	.
=126	=126	=126	=126	=126	=126	=126	=126
2r	.	1G-Mm	.	guitar	.	129.339	G-:7
8r	.	.	.	.	.	.	.
4d-	Mm-	.	.	.	.	.	.
[8d-	-hm	.	.	.	.	.	.
=127	=127	=127	=127	=127	=127	=127	=127
4d-]	_	1D-Mm	.	guitar	.	130.349	D-:7
4r	.	.	.	.	.	.	.
2r	.	.	.	.	.	.	.
=128	=128	=128	=128	=128	=128	=128	=128
2r	.	1D-Mm	.	guitar	.	131.36	D-:7
8r	.	.	.	.	.	.	.
4A-	Mm-	.	.	.	.	.	.
[8c-	-hm	.	.	.	.	.	.
=129	=129	=129	=129	=129	=129	=129	=129
8c-]	_	1A-Mm	newline	guitar	.	132.37	A-:7
4A-	mm-	.	.	.	.	.	.
[8B-	-hm	.	.	.	.	.	.
4B-]	_	.	.	.	.	.	.
4r	.	.	.	.	.	.	.
=130	=130	=130	=130	=130	=130	=130	=130
2r	.	1G-Mm	.	guitar	.	133.387	G-:7
8r	.	.	.	.	.	.	.
4d-	Mm-	.	.	.	.	.	.
[8d-	-hm	.	.	.	.	.	.
=131	=131	=131	=131	=131	=131	=131	=131
4d-]	_	1D-Mm	.	guitar	.	134.403	D-:7
4r	.	.	.	.	.	.	.
2r	.	.	.	.	.	.	.
=132	=132	=132	=132	=132	=132	=132	=132
1r	.	1D-Mm	.	guitar	.	135.419	D-:7
r;	.	1r;	.	r	.	136.436	N.C.
*-	*-	*-	*-	*-	*-	*-	*-
!!!BillboardChartDate: 1968/01/27
!!!BillboardPeak: 28
!!!BillboardWeeksOnChart: 20
!!!COC: Elvis Presley
!!!ENC: Nathaniel Condit-Schultz
!!!EST: Awating manual error checking and editing.
!!!OTL: Guitar Man
!!!RDF**chordsym: original McGill chord annotation + (implied pitch class set, with bass pitch in first position)
!!!RDF**harmony: **recip + pitch class of root + harmonic quality
!!!RDF**leadinstrument: original McGill primary instrumentation annotation
!!!RDF**phrase: newline = linebreak in original McGill transcription
!!!RDF**timestamp: McGill audio timestamp in seconds
!!!RDT: 2017/01/12/
!!!SampleActualRank: 83
!!!SampleID#: 0289
!!!SampleTargetRank: 84
